plus-box-multiple-outline.svg

<svg  viewBox="0 0 24 24" fill="currentColor"><path  d="M18 11H15V14H13V11H10V9H13V6H15V9H18M20 4V16H8V4H20M20 2H8C6.9 2 6 2.9 6 4V16C6 17.11 6.9 18 8 18H20C21.11 18 22 17.11 22 16V4C22 2.9 21.11 2 20 2M4 6H2V20C2 21.11 2.9 22 4 22H18V20H4V6Z"/></svg>

<svg fill="currentColor" viewBox="0 0 24 24"><path d="M18 11h-3v3h-2v-3h-3V9h3V6h2v3h3m2-5v12H8V4zm0-2H8c-1.1 0-2 .9-2 2v12a2 2 0 0 0 2 2h12c1.11 0 2-.89 2-2V4a2 2 0 0 0-2-2M4 6H2v14a2 2 0 0 0 2 2h14v-2H4z"/></svg>
